symbolic/48x48/apps/wallpapoz.svg

<svg xmlns="http://www.w3.org/2000/svg" width="48" height="48" version="1.1">
 <path style="fill:#4f4f4f" d="m 24.1077,4.0016669 a 4.5656,4.5479 0 0 0 -2.391,0.6067 L 8.2827,12.334367 a 4.5656,4.5479 0 0 0 -2.283,3.939 l 0,15.453 a 4.5656,4.5479 0 0 0 2.2828,3.9386 l 13.434,7.7264 a 4.5656,4.5479 0 0 0 4.5656,0 l 13.434,-7.7264 a 4.5656,4.5479 0 0 0 2.283,-3.939 l 0,-15.453 a 4.5656,4.5479 0 0 0 -2.283,-3.939 L 26.2821,4.6079669 a 4.5656,4.5479 0 0 0 -2.175,-0.6067 z"/>
 <path style="opacity:0.1;fill:#f4f4f7" d="m 24.1067,4.0023669 a 4.5656,4.5479 0 0 0 -2.39,0.6054 L 8.2827,12.334367 a 4.5656,4.5479 0 0 0 -2.283,3.939 l 0,1 a 4.5656,4.5479 0 0 1 2.2832,-3.939 l 13.434,-7.7266001 a 4.5656,4.5479 0 0 1 2.3906,-0.60547 4.5656,4.5479 0 0 1 2.1758,0.60547 l 13.434,7.7266001 a 4.5656,4.5479 0 0 1 2.283,3.939 l 0,-1 a 4.5656,4.5479 0 0 0 -2.283,-3.939 L 26.2833,4.6077669 a 4.5656,4.5479 0 0 0 -2.176,-0.6054 z"/>
 <path style="opacity:0.2" d="m 5.9997,31.726367 0,1 a 4.5656,4.5479 0 0 0 2.2832,3.9375 l 13.434,7.7266 a 4.5656,4.5479 0 0 0 4.5664,0 l 13.434,-7.727 a 4.5656,4.5479 0 0 0 2.283,-3.938 l 0,-1 a 4.5656,4.5479 0 0 1 -2.2832,3.9375 l -13.434,7.7266 a 4.5656,4.5479 0 0 1 -4.5664,0 l -13.434,-7.727 a 4.5656,4.5479 0 0 1 -2.283,-3.938 z"/>
 <path style="opacity:0.2" d="m 24.084234,9.0010632 a 3.5510814,3.6382897 0 0 0 -1.859697,0.485356 L 11.775696,15.667168 A 3.5510814,3.6382897 0 0 0 10,18.818341 l 0,12.362297 a 3.5510814,3.6382897 0 0 0 1.775541,3.150854 l 10.44884,6.181069 a 3.5510814,3.6382897 0 0 0 3.551082,0 L 36.224304,34.331492 A 3.5510814,3.6382897 0 0 0 38,31.180318 L 38,18.818021 A 3.5510814,3.6382897 0 0 0 36.224304,15.666848 L 25.775463,9.4860992 a 3.5510814,3.6382897 0 0 0 -1.691695,-0.485356 z"/>
 <path style="fill:#f05353" d="M 37.599609 16.148438 L 23.927734 24.041016 L 37.564453 31.914062 A 3.5510814 3.6382897 0 0 0 38 30.179688 L 38 17.818359 A 3.5510814 3.6382897 0 0 0 37.599609 16.148438 z"/>
 <path style="fill:#5fcad6" d="M 23.927734 24.041016 L 10.400391 31.851562 A 3.5510814 3.6382897 0 0 0 11.775391 33.332031 L 22.224609 39.511719 A 3.5510814 3.6382897 0 0 0 23.927734 39.998047 L 23.927734 24.041016 z"/>
 <path style="fill:#5c6cd9" d="M 23.927734 24.041016 L 23.927734 39.998047 A 3.5510814 3.6382897 0 0 0 25.775391 39.511719 L 36.224609 33.332031 A 3.5510814 3.6382897 0 0 0 37.564453 31.914062 L 23.927734 24.041016 z"/>
 <path style="fill:#7c9446" d="M 10.433594 16.085938 A 3.5510814 3.6382897 0 0 0 10 17.818359 L 10 30.179688 A 3.5510814 3.6382897 0 0 0 10.400391 31.851562 L 24.072266 23.958984 L 10.433594 16.085938 z"/>
 <path style="fill:#bb53e2" d="M 24.083984 8 L 24.083984 8.0019531 A 3.5510814 3.6382897 0 0 0 24.072266 8.0019531 L 24.072266 23.958984 L 37.599609 16.148438 A 3.5510814 3.6382897 0 0 0 36.224609 14.666016 L 25.775391 8.4863281 A 3.5510814 3.6382897 0 0 0 24.083984 8 z"/>
 <path style="fill:#ffc540" d="M 24.072266 8.0019531 A 3.5510814 3.6382897 0 0 0 22.224609 8.4863281 L 11.775391 14.667969 A 3.5510814 3.6382897 0 0 0 10.433594 16.085938 L 24.072266 23.958984 L 24.072266 8.0019531 z"/>
 <path style="fill:#f4f4f7;opacity:0.2" d="M 24.083984 8 L 24.083984 8.0019531 A 3.5510814 3.6382897 0 0 0 22.224609 8.4863281 L 11.775391 14.667969 A 3.5510814 3.6382897 0 0 0 10 17.818359 L 10 18.818359 A 3.5510814 3.6382897 0 0 1 11.775391 15.667969 L 22.224609 9.4863281 A 3.5510814 3.6382897 0 0 1 24.083984 9.0019531 L 24.083984 9 A 3.5510814 3.6382897 0 0 1 25.775391 9.4863281 L 36.224609 15.666016 A 3.5510814 3.6382897 0 0 1 38 18.818359 L 38 17.818359 A 3.5510814 3.6382897 0 0 0 36.224609 14.666016 L 25.775391 8.4863281 A 3.5510814 3.6382897 0 0 0 24.083984 8 z"/>
 <path style="fill:none;stroke:#3f3f3f;stroke-width:4;stroke-linecap:round;stroke-linejoin:round" d="m 16,18 4,14 4,-14 4,14 4,-14 0,0"/>
</svg>

<svg xmlns="http://www.w3.org/2000/svg" width="48" height="48"><path style="fill:#4f4f4f" d="M24.108 4.002a4.566 4.548 0 0 0-2.391.606L8.283 12.334A4.566 4.548 0 0 0 6 16.274v15.452a4.566 4.548 0 0 0 2.283 3.939l13.434 7.726a4.566 4.548 0 0 0 4.565 0l13.434-7.726A4.566 4.548 0 0 0 42 31.726V16.273a4.566 4.548 0 0 0-2.283-3.939L26.282 4.608a4.566 4.548 0 0 0-2.175-.607z"/><path style="opacity:.1;fill:#f4f4f7" d="M24.107 4.002a4.566 4.548 0 0 0-2.39.606L8.283 12.334A4.566 4.548 0 0 0 6 16.274v1a4.566 4.548 0 0 1 2.283-3.94l13.434-7.726a4.566 4.548 0 0 1 2.39-.606 4.566 4.548 0 0 1 2.176.606l13.434 7.726A4.566 4.548 0 0 1 42 17.274v-1a4.566 4.548 0 0 0-2.283-3.94L26.283 4.608a4.566 4.548 0 0 0-2.176-.606z"/><path style="opacity:.2" d="M6 31.726v1a4.566 4.548 0 0 0 2.283 3.938l13.434 7.726a4.566 4.548 0 0 0 4.566 0l13.434-7.727A4.566 4.548 0 0 0 42 32.725v-1a4.566 4.548 0 0 1-2.283 3.938L26.283 43.39a4.566 4.548 0 0 1-4.566 0L8.283 35.663A4.566 4.548 0 0 1 6 31.725z"/><path style="opacity:.2" d="M24.084 9.001a3.551 3.638 0 0 0-1.86.485l-10.448 6.181A3.551 3.638 0 0 0 10 18.818v12.363a3.551 3.638 0 0 0 1.776 3.15l10.448 6.182a3.551 3.638 0 0 0 3.551 0l10.45-6.182A3.551 3.638 0 0 0 38 31.181V18.817a3.551 3.638 0 0 0-1.776-3.151l-10.449-6.18A3.551 3.638 0 0 0 24.084 9z"/><path style="fill:#f05353" d="m37.6 16.148-13.672 7.893 13.636 7.873A3.551 3.638 0 0 0 38 30.18V17.818a3.551 3.638 0 0 0-.4-1.67z"/><path style="fill:#5fcad6" d="M23.928 24.041 10.4 31.851a3.551 3.638 0 0 0 1.375 1.481l10.45 6.18a3.551 3.638 0 0 0 1.703.486V24.041z"/><path style="fill:#5c6cd9" d="M23.928 24.041v15.957a3.551 3.638 0 0 0 1.847-.486l10.45-6.18a3.551 3.638 0 0 0 1.34-1.418l-13.637-7.873z"/><path style="fill:#7c9446" d="M10.434 16.086A3.551 3.638 0 0 0 10 17.818V30.18a3.551 3.638 0 0 0 .4 1.672l13.672-7.893-13.638-7.873z"/><path style="fill:#bb53e2" d="M24.084 8v.002a3.551 3.638 0 0 0-.012 0v15.957l13.528-7.81a3.551 3.638 0 0 0-1.375-1.483l-10.45-6.18A3.551 3.638 0 0 0 24.084 8z"/><path style="fill:#ffc540" d="M24.072 8.002a3.551 3.638 0 0 0-1.847.484l-10.45 6.182a3.551 3.638 0 0 0-1.341 1.418l13.638 7.873V8.002z"/><path style="fill:#f4f4f7;opacity:.2" d="M24.084 8v.002a3.551 3.638 0 0 0-1.86.484l-10.449 6.182A3.551 3.638 0 0 0 10 17.818v1a3.551 3.638 0 0 1 1.775-3.15l10.45-6.182a3.551 3.638 0 0 1 1.859-.484V9a3.551 3.638 0 0 1 1.691.486l10.45 6.18A3.551 3.638 0 0 1 38 18.818v-1a3.551 3.638 0 0 0-1.775-3.152l-10.45-6.18A3.551 3.638 0 0 0 24.084 8z"/><path style="fill:none;stroke:#3f3f3f;stroke-width:4;stroke-linecap:round;stroke-linejoin:round" d="m16 18 4 14 4-14 4 14 4-14h0"/></svg>
